X:1
T:Lady Forbes of Newe's
T:Lady Forbes of Newe's
T:Alexander Walker
C:Alexander Walker
L:1/8
M:2/2
K:A
V:1 treble 
V:1
|: c | A>E [A,E]/[A,E]/[A,E] CA,EC | FB,FE FB,B,G | A>A, A,/A,/A, CA,EC | B,dcB cAA :| g | %6
 aecA eAcA | fBdB fBbg | aAcA eAcB | AEFD CA,A,g | aecA eAcA | fBdB fBbg | aece fdBd | %13
 cAGB AA,A, || %14

